app/src/image/pencil.svg

<svg version="1.1" xmlns="http://www.w3.org/2000/svg" xmlns:xlink="http://www.w3.org/1999/xlink" width="16" height="16" viewBox="0,0,256,256"><g fill="#1f1f1f" fill-rule="nonzero" stroke="none" stroke-width="1" stroke-linecap="butt" stroke-linejoin="miter" stroke-miterlimit="10" stroke-dasharray="" stroke-dashoffset="0" font-family="none" font-weight="none" font-size="none" text-anchor="none" style="mix-blend-mode: normal"><g transform="translate(-0.00859,0.00859) scale(16,16)"><path d="M12.146,0.146c0.0938,-0.09404 0.22117,-0.14689 0.354,-0.14689c0.13283,0 0.2602,0.05285 0.354,0.14689l3,3c0.09404,0.0938 0.14689,0.22117 0.14689,0.354c0,0.13283 -0.05285,0.2602 -0.14689,0.354l-10,10c-0.04799,0.04765 -0.10514,0.08507 -0.168,0.11l-5,2c-0.18573,0.07434 -0.3979,0.03082 -0.53936,-0.11064c-0.14146,-0.14146 -0.18498,-0.35363 -0.11064,-0.53936l2,-5c0.02493,-0.06286 0.06235,-0.12001 0.11,-0.168zM11.207,2.5l2.293,2.293l1.293,-1.293l-2.293,-2.293zM12.793,5.5l-2.293,-2.293l-6.5,6.5v0.293h0.5c0.27614,0 0.5,0.22386 0.5,0.5v0.5h0.5c0.27614,0 0.5,0.22386 0.5,0.5v0.5h0.293zM3.032,10.675l-0.106,0.106l-1.528,3.821l3.821,-1.528l0.106,-0.106c-0.19532,-0.07298 -0.32484,-0.2595 -0.325,-0.468v-0.5h-0.5c-0.27614,0 -0.5,-0.22386 -0.5,-0.5v-0.5h-0.5c-0.2085,-0.00016 -0.39502,-0.12968 -0.468,-0.325z"></path></g></g></svg>

<svg xmlns="http://www.w3.org/2000/svg" width="16" height="16" fill="currentColor" class="bi bi-pencil" viewBox="0 0 16 16">
  <path d="M12.146.146a.5.5 0 0 1 .708 0l3 3a.5.5 0 0 1 0 .708l-10 10a.5.5 0 0 1-.168.11l-5 2a.5.5 0 0 1-.65-.65l2-5a.5.5 0 0 1 .11-.168l10-10zM11.207 2.5 13.5 4.793 14.793 3.5 12.5 1.207 11.207 2.5zm1.586 3L10.5 3.207 4 9.707V10h.5a.5.5 0 0 1 .5.5v.5h.5a.5.5 0 0 1 .5.5v.5h.293l6.5-6.5zm-9.761 5.175-.106.106-1.528 3.821 3.821-1.528.106-.106A.5.5 0 0 1 5 12.5V12h-.5a.5.5 0 0 1-.5-.5V11h-.5a.5.5 0 0 1-.468-.325z"/>
</svg>
